X:46
T:Tatter Jack Walsh/ Out on the ocean/ Brian O'Linn
T:Tatterjack Walsh
R:jig
M:6/8
L:1/8
K:Dmix
|: fef ded | cAB c2 A | dcA GFG| Add efg |
fef ded | cAB c2 A | dcA GFG | Ad^c d3 :|
|: dfa afd | dfa agf | g2 a ged | ^cde gfg |
afd fed | cAB cde | dcA GFG| Ad^c d3 :|
T:Out on the Ocean
K:G
DBB BAG|BdB A2A|GED G2A|BBB AGE|DBB BAG|BdB A2A|GED G2A|1BGG G3:|2BGG GBd|:
eee edB|eee edB|ddd def|gfe dBA|GGA BBd|eee dBA|GED G2A|1BGG GBd:|2BGG G3|
T:Brian O'Lynn
M: 6/8
L: 1/8
R: jig
K:Ador
B||:cAd cAG|EDE GAB|cAc BAG|EAA ~A2B|cAd cAG|EDE GAB|cde =fed|cAA A3:||:
f-gg ged|cAB c2d|eaa age|ed^c def|gea ged|cAB cde|=fed cAG|EAA A3:||

